X: 1
T: Kick The World Before Me
M: 9/8
L: 1/8
R: slip jig
K: Ador
|: B | c2 A BGE EGE | c2 A BAG A2 B | c2 A BGE EGE | cde d>cB A2 :|
|: B | c2 c cec BdB | c2 c cec d2 B | c2 c cec B/c/dB | c>BA BGE A2 :|
K: Edor
|: f | g2 e fdB B2 d | gg/f/e fed e2 f | gee fdB Bd/e/f | g2 b aa/g/f e2 :|
|: f | gdg gbg f2 a | gg/g/g gbg a2 f | gdg gbg ff/g/a | gfe fdB A2 :|
